X: 41298
T: Tundra, The
R: polka
M: 2/4
K: Amixolydian
|:ag/a/ ba|gf ed|c>d eA|GA E2|
ag/a/ ba|gf ed|c>d eA|GB A2:|
|:A/B/c/d/ eg|ag/a/ ba|fa ea|ga fd|
ea ga|fd e2|A/B/c/d/ eA|GE A2:|

